!!!OTL: Der Kirchenr&auml;uber Peter Paulus (229b), S. 493
!!!id: T0413
**kern
*clefG2
*k[f#]
*G:
{8g
8a
=1
8b
8b
8b
8b
8cc
8a
=2
8a
8g
4g}
=3
{8g
8a
=4
4b
8b
8b
8cc
8a
=5
8a
8g
4g}
8r
=6
{8g
=7
16f#
16a
8a
4a
8r
8a
=8
8g
8a
4b}
4r
=9
{16g
4g
8b
16g
16g
8dd
8cc
8b
16g
16g
8cc
8b
8a
16g
=10
4g}
4r
==
*-
!!!minrhy: 16
!!!meters: 3/4 ]  ZZ[4
!!!cut: Der Kirchenr&auml;uber Peter Paulus (229b), S. 493
!!!reg: Luxemburg
!!!trd: Singendes Volk, Esch-Alzette, 1937 posth.
!!!rhy1: X_X_  X_X_X_X_X_X_  X_X_X__   (x2)
!!!rhy2: X_X_  X__X_X_X_X_  X_X_X__0
!!!key: T0413  16  G 3/4 ]  ZZ[4
!!!mod: SECHSTONSKALA DUR ?]  AMBITUS[6b
!!!kad: 1131
!!!akz: 32_32_-71_11_
!!!fot: 'a__av_b__c__
!!!for: 'a__b__c__d__
!!!fok: '^__^__/__^__
!! PHRAS[VORWIEGEND AUFTAKTIG]
!!!fkt: Berufslied
!!!bem: Reuland, hhh Franz Deitz, 17.12.1911
!! THILL; Mathias
!! PR[32] 2K[5] 2G[5] 3K[7] 3G[2] 4A[10] 4Ü[0] 5A[0] 6K[0] 6G[0]
!! 7K[0] 7G[0] 8A[0] MEHR[0] SI[29] ABS[41] SR[10] SP[20]
!! ST[8] 2k[10] 2g[17] 3k[10] 3g[2] 4d[0] 4ü[0] 5d[0] 6k[0] 6g[0]
!! 7k[0] 7g[0] 8d[0] mehr[0] si[39] dm[-10] sr[27] sp[12]
!! 1F[18] 2F[67] 3F[16] 4F[0] LF[0] 2P[0] 3P[0] 4P[0] TRI[0] DF[3] AB[45]
!! TF[0] U3K[0] U3[0] U4[0] U4Ü[0] U5[17] U6K[0] U6[7] U7K[0] U7[14]
!! N1[26] N2K[0] N2[19] N3K[0] N3[10] N4[5] N4Ü[0] N5[2] N6K[0] N6[0]
!!!n7k: 0] N7[0] O1[0] O2K[0] O2[0] O3K[0] O3[0] HÖ[0
!!!RNB: symbol: &auml;      = a umlaut  (UTF-8: Å„)
